packages/assets/static/images/icons/alert.svg

<svg width="24" height="24" viewBox="0 0 24 24" xmlns="http://www.w3.org/2000/svg">
<g clip-path="url(#clip0_2001_46027)">
<path d="M21.5 6.66565C21.3235 6.75707 21.1178 6.77465 20.9283 6.71453C20.7388 6.65441 20.5809 6.5215 20.4894 6.34502C19.7735 4.93079 18.6899 3.73549 17.3525 2.88471C17.2692 2.83214 17.197 2.76367 17.1401 2.6832C17.0832 2.60274 17.0427 2.51186 17.021 2.41575C16.9992 2.31964 16.9966 2.22019 17.0132 2.12307C17.0299 2.02594 17.0656 1.93306 17.1181 1.84971C17.1707 1.76636 17.2392 1.69418 17.3196 1.6373C17.4001 1.58041 17.491 1.53993 17.5871 1.51817C17.6832 1.4964 17.7826 1.49378 17.8798 1.51045C17.9769 1.52713 18.0698 1.56276 18.1531 1.61533C19.7118 2.61334 20.9775 4.00742 21.8206 5.65502C21.9121 5.83157 21.9296 6.0372 21.8695 6.2267C21.8094 6.41621 21.6765 6.57409 21.5 6.66565ZM3.84782 6.75002C3.98522 6.74996 4.11996 6.71216 4.23735 6.64074C4.35473 6.56932 4.45024 6.46702 4.51344 6.34502C5.22932 4.93079 6.3129 3.73549 7.65032 2.88471C7.81864 2.77854 7.9379 2.60985 7.98186 2.41575C8.02581 2.22165 7.99086 2.01804 7.88469 1.84971C7.77852 1.68138 7.60983 1.56212 7.41573 1.51817C7.22163 1.47421 7.01802 1.50916 6.84969 1.61533C5.29101 2.61334 4.02536 4.00742 3.18219 5.65502C3.12298 5.76932 3.09418 5.89694 3.09857 6.02559C3.10295 6.15424 3.14038 6.2796 3.20725 6.3896C3.27411 6.4996 3.36817 6.59053 3.48035 6.65366C3.59254 6.71678 3.71909 6.74997 3.84782 6.75002ZM21.2947 16.4944C21.4276 16.7222 21.498 16.9811 21.4989 17.2449C21.4998 17.5086 21.4312 17.768 21.2998 17.9967C21.1685 18.2255 20.9792 18.4156 20.751 18.5478C20.5228 18.6801 20.2638 18.7498 20 18.75H16.175C16.0029 19.5977 15.543 20.3599 14.8732 20.9073C14.2034 21.4547 13.365 21.7538 12.5 21.7538C11.635 21.7538 10.7966 21.4547 10.1268 20.9073C9.45705 20.3599 8.99714 19.5977 8.825 18.75H5C4.7364 18.7495 4.47758 18.6795 4.24963 18.5471C4.02168 18.4147 3.83265 18.2246 3.70156 17.9959C3.57048 17.7672 3.50199 17.508 3.50297 17.2444C3.50396 16.9808 3.5744 16.7221 3.70719 16.4944C4.55188 15.0366 5 12.9638 5 10.5C5 8.5109 5.79018 6.60324 7.1967 5.19672C8.60322 3.7902 10.5109 3.00002 12.5 3.00002C14.4891 3.00002 16.3968 3.7902 17.8033 5.19672C19.2098 6.60324 20 8.5109 20 10.5C20 12.9628 20.4481 15.0356 21.2947 16.4944ZM14.6206 18.75H10.3794C10.5348 19.1882 10.8221 19.5675 11.2018 19.8358C11.5816 20.104 12.0351 20.2481 12.5 20.2481C12.9649 20.2481 13.4185 20.104 13.7982 19.8358C14.1779 19.5675 14.4652 19.1882 14.6206 18.75ZM20 17.25C19.0025 15.5372 18.5 13.2666 18.5 10.5C18.5 8.90872 17.8679 7.3826 16.7426 6.25738C15.6174 5.13216 14.0913 4.50002 12.5 4.50002C10.9087 4.50002 9.38258 5.13216 8.25736 6.25738C7.13214 7.3826 6.5 8.90872 6.5 10.5C6.5 13.2675 5.99563 15.5381 5 17.25H20Z"/>
</g>
<defs>
<clipPath id="clip0_2001_46027">
<rect width="24" height="24"/>
</clipPath>
</defs>
</svg>

<svg viewBox="0 0 24 24" xmlns="http://www.w3.org/2000/svg" aria-hidden="true" fill="currentColor"><g clip-path="url(#a)"><path d="M21.5 6.666a.75.75 0 0 1-1.01-.321 8.8 8.8 0 0 0-3.137-3.46.751.751 0 0 1 .8-1.27 10.45 10.45 0 0 1 3.668 4.04.75.75 0 0 1-.321 1.01M3.848 6.75a.75.75 0 0 0 .665-.405 8.8 8.8 0 0 1 3.137-3.46.75.75 0 0 0-.8-1.27 10.45 10.45 0 0 0-3.668 4.04.75.75 0 0 0 .666 1.095m17.447 9.744A1.5 1.5 0 0 1 20 18.75h-3.825a3.75 3.75 0 0 1-7.35 0H5a1.5 1.5 0 0 1-1.293-2.256C4.552 15.037 5 12.964 5 10.5a7.5 7.5 0 0 1 15 0c0 2.463.448 4.536 1.295 5.994M14.62 18.75h-4.242a2.25 2.25 0 0 0 4.242 0m5.38-1.5c-.997-1.713-1.5-3.983-1.5-6.75a6 6 0 1 0-12 0c0 2.768-.504 5.038-1.5 6.75z"/></g><defs><clipPath id="a"><path d="M0 0h24v24H0z"/></clipPath></defs></svg>
